(Generated by PartKam Version 0.05)

G21 G90 G40

(outside profile)
G0 Z15
T0 M6
G17
M3
G0 X0.17639593908629442 Y44.32335025380711
G1 Z-1.5 F800
G1 X10.1751269035533 Y44.32233502538071 F700
G1 X12.269035532994923 Y44.32233502538071
G1 X12.269035532994923 Y43.53045685279188
G1 X0.17512690355329952 Y43.53045685279188
G3 X-1.4111675126903553 Y41.94162436548224 I0 J-1.5862944162436547
G3 X-1.4086294416243654 Y41.870558375634516 I1.5862944162436547 J0
G3 X-0.15482233502538073 Y32.86802030456853 I48.88832487309645 J2.220812182741117
G3 X2.5989847715736043 Y24.873096446700508 I41.01015228426397 J9.66243654822335
G3 X6.895939086294415 Y17.588832487309645 I38.256345177664976 J17.65482233502538
G3 X12.931472081218274 Y10.796954314720812 I39.444162436548226 J28.967005076142133
G3 X20.121827411167512 Y5.236040609137056 I33.40609137055837 J35.76142131979695
G3 X27.680203045685282 Y1.4441624365482233 I22.571065989847714 J35.576142131979694
G3 X35.84263959390863 Y-0.7614213197969544 I15.01269035532995 J39.368020304568525
G3 X44.90862944162436 Y-1.398477157360406 I7.956852791878173 J48.286802030456855
G3 X53.93654822335026 Y-0.35025380710659904 I-1.1091370558375635 J48.923857868020306
G3 X61.992385786802025 Y2.2233502538071064 I-8.728426395939087 J41.21827411167513
G3 X69.3730964467005 Y6.352791878172589 I-16.784263959390863 J38.64467005076142
G3 X76.30203045685279 Y12.233502538071066 I-28.065989847715738 J40.09137055837564
G3 X82.0228426395939 Y19.294416243654823 I-34.994923857868024 J34.20812182741117
G3 X85.98477157360406 Y26.766497461928935 I-35.055837563451774 J23.373096446700508
G3 X87.1725888324873 Y30.06345177664975 I-39.01776649746193 J15.903553299492385
G3 X88.37563451776649 Y34.878172588832484 I-40.203045685279186 J12.604060913705585
G3 X89.0507614213198 Y39.86548223350254 I-48.09390862944163 J9.048223350253807
G3 X89.21827411167513 Y43.9263959390863 I-48.76903553299492 J4.060913705583756
G3 X88.37563451776649 Y52.9746192893401 I-48.93654822335026 J0
G3 X85.98477157360406 Y61.08629441624365 I-41.40609137055837 J-7.791878172588832
G3 X82.0228426395939 Y68.55837563451777 I-39.01776649746193 J-15.903553299492385
G3 X76.30203045685279 Y75.61928934010152 I-40.715736040609144 J-27.14720812182741
G3 X69.3730964467005 Y81.5 I-34.994923857868024 J-34.20812182741117
G3 X61.992385786802025 Y85.62944162436548 I-24.16243654822335 J-34.515228426395936
G3 X54.77664974619289 Y88.01522842639594 I-16.784263959390863 J-38.64467005076142
G3 X53.93654822335026 Y88.20304568527918 I-9.568527918781726 J-41.03299492385787
G3 X44.90862944162436 Y89.251269035533 I-10.137055837563452 J-47.87563451776649
G3 X44.87055837563452 Y89.25380710659897 I-1.1091370558375635 J-48.923857868020306
G3 X35.84263959390863 Y88.61421319796955 I-1.0710659898477157 J-48.9263959390863
G3 X27.680203045685282 Y86.40862944162437 I6.850253807106599 J-41.57360406091371
G3 X20.121827411167512 Y82.61675126903553 I15.01269035532995 J-39.368020304568525
G3 X12.931472081218274 Y77.05583756345177 I26.218274111675125 J-41.32233502538071
G3 X6.895939086294415 Y70.26395939086294 I33.40609137055837 J-35.76142131979695
G3 X2.5989847715736043 Y62.97969543147208 I33.95939086294416 J-24.939086294416242
G3 X-0.15482233502538073 Y54.98477157360406 I38.256345177664976 J-17.65482233502538
G3 X-1.4086294416243654 Y45.98223350253807 I47.63451776649746 J-11.220812182741117
G3 X-1.4111675126903553 Y45.911167512690355 I1.5862944162436547 J-0.07106598984771574
G3 X0.17512690355329952 Y44.32233502538071 I1.5862944162436547 J0
G1 Z-3 F800
G1 Z-2.6748730964467007 F800
G1 X10.1751269035533 Y44.32233502538071 F700
G1 Z-3 F800
G1 X12.269035532994923 Y44.32233502538071 F700
G1 X12.269035532994923 Y43.53045685279188
G1 X0.17512690355329952 Y43.53045685279188
G3 X-1.4111675126903553 Y41.94162436548224 I0 J-1.5862944162436547
G3 X-1.4086294416243654 Y41.870558375634516 I1.5862944162436547 J0
G3 X-0.15482233502538073 Y32.86802030456853 I48.88832487309645 J2.220812182741117
G3 X2.5989847715736043 Y24.873096446700508 I41.01015228426397 J9.66243654822335
G3 X6.895939086294415 Y17.588832487309645 I38.256345177664976 J17.65482233502538
G3 X12.931472081218274 Y10.796954314720812 I39.444162436548226 J28.967005076142133
G3 X20.121827411167512 Y5.236040609137056 I33.40609137055837 J35.76142131979695
G3 X27.680203045685282 Y1.4441624365482233 I22.571065989847714 J35.576142131979694
G3 X35.84263959390863 Y-0.7614213197969544 I15.01269035532995 J39.368020304568525
G3 X44.90862944162436 Y-1.398477157360406 I7.956852791878173 J48.286802030456855
G3 X53.93654822335026 Y-0.35025380710659904 I-1.1091370558375635 J48.923857868020306
G3 X61.992385786802025 Y2.2233502538071064 I-8.728426395939087 J41.21827411167513
G3 X69.3730964467005 Y6.352791878172589 I-16.784263959390863 J38.64467005076142
G3 X76.30203045685279 Y12.233502538071066 I-28.065989847715738 J40.09137055837564
G3 X82.0228426395939 Y19.294416243654823 I-34.994923857868024 J34.20812182741117
G3 X85.98477157360406 Y26.766497461928935 I-35.055837563451774 J23.373096446700508
G3 X87.1725888324873 Y30.06345177664975 I-39.01776649746193 J15.903553299492385
G1 Z-2.6748730964467007 F800
G3 X88.37563451776649 Y34.878172588832484 I-40.203045685279186 J12.604060913705585 F700
G3 X89.0507614213198 Y39.86548223350254 I-48.09390862944163 J9.048223350253807
G1 Z-3 F800
G3 X89.21827411167513 Y43.9263959390863 I-48.76903553299492 J4.060913705583756 F700
G3 X88.37563451776649 Y52.9746192893401 I-48.93654822335026 J0
G3 X85.98477157360406 Y61.08629441624365 I-41.40609137055837 J-7.791878172588832
G3 X82.0228426395939 Y68.55837563451777 I-39.01776649746193 J-15.903553299492385
G3 X76.30203045685279 Y75.61928934010152 I-40.715736040609144 J-27.14720812182741
G3 X69.3730964467005 Y81.5 I-34.994923857868024 J-34.20812182741117
G3 X61.992385786802025 Y85.62944162436548 I-24.16243654822335 J-34.515228426395936
G3 X54.77664974619289 Y88.01522842639594 I-16.784263959390863 J-38.64467005076142
G1 Z-2.6748730964467007 F800
G3 X53.93654822335026 Y88.20304568527918 I-9.568527918781726 J-41.03299492385787 F700
G3 X44.90862944162436 Y89.251269035533 I-10.137055837563452 J-47.87563451776649
G3 X44.87055837563452 Y89.25380710659897 I-1.1091370558375635 J-48.923857868020306
G1 Z-3 F800
G3 X35.84263959390863 Y88.61421319796955 I-1.0710659898477157 J-48.9263959390863 F700
G3 X27.680203045685282 Y86.40862944162437 I6.850253807106599 J-41.57360406091371
G3 X20.121827411167512 Y82.61675126903553 I15.01269035532995 J-39.368020304568525
G3 X12.931472081218274 Y77.05583756345177 I26.218274111675125 J-41.32233502538071
G3 X6.895939086294415 Y70.26395939086294 I33.40609137055837 J-35.76142131979695
G3 X2.5989847715736043 Y62.97969543147208 I33.95939086294416 J-24.939086294416242
G3 X-0.15482233502538073 Y54.98477157360406 I38.256345177664976 J-17.65482233502538
G3 X-1.4086294416243654 Y45.98223350253807 I47.63451776649746 J-11.220812182741117
G3 X-1.4111675126903553 Y45.911167512690355 I1.5862944162436547 J-0.07106598984771574
G3 X0.17512690355329952 Y44.32233502538071 I1.5862944162436547 J0
G1 Z-3.1748730964467007 F800
G1 Z-2.6748730964467007 F800
G1 X10.1751269035533 Y44.32233502538071 F700
G1 Z-3.1748730964467007 F800
G1 X12.269035532994923 Y44.32233502538071 F700
G1 X12.269035532994923 Y43.53045685279188
G1 X0.17512690355329952 Y43.53045685279188
G3 X-1.4111675126903553 Y41.94162436548224 I0 J-1.5862944162436547
G3 X-1.4086294416243654 Y41.870558375634516 I1.5862944162436547 J0
G3 X-0.15482233502538073 Y32.86802030456853 I48.88832487309645 J2.220812182741117
G3 X2.5989847715736043 Y24.873096446700508 I41.01015228426397 J9.66243654822335
G3 X6.895939086294415 Y17.588832487309645 I38.256345177664976 J17.65482233502538
G3 X12.931472081218274 Y10.796954314720812 I39.444162436548226 J28.967005076142133
G3 X20.121827411167512 Y5.236040609137056 I33.40609137055837 J35.76142131979695
G3 X27.680203045685282 Y1.4441624365482233 I22.571065989847714 J35.576142131979694
G3 X35.84263959390863 Y-0.7614213197969544 I15.01269035532995 J39.368020304568525
G3 X44.90862944162436 Y-1.398477157360406 I7.956852791878173 J48.286802030456855
G3 X53.93654822335026 Y-0.35025380710659904 I-1.1091370558375635 J48.923857868020306
G3 X61.992385786802025 Y2.2233502538071064 I-8.728426395939087 J41.21827411167513
G3 X69.3730964467005 Y6.352791878172589 I-16.784263959390863 J38.64467005076142
G3 X76.30203045685279 Y12.233502538071066 I-28.065989847715738 J40.09137055837564
G3 X82.0228426395939 Y19.294416243654823 I-34.994923857868024 J34.20812182741117
G3 X85.98477157360406 Y26.766497461928935 I-35.055837563451774 J23.373096446700508
G3 X87.1725888324873 Y30.06345177664975 I-39.01776649746193 J15.903553299492385
G1 Z-2.6748730964467007 F800
G3 X88.37563451776649 Y34.878172588832484 I-40.203045685279186 J12.604060913705585 F700
G3 X89.0507614213198 Y39.86548223350254 I-48.09390862944163 J9.048223350253807
G1 Z-3.1748730964467007 F800
G3 X89.21827411167513 Y43.9263959390863 I-48.76903553299492 J4.060913705583756 F700
G3 X88.37563451776649 Y52.9746192893401 I-48.93654822335026 J0
G3 X85.98477157360406 Y61.08629441624365 I-41.40609137055837 J-7.791878172588832
G3 X82.0228426395939 Y68.55837563451777 I-39.01776649746193 J-15.903553299492385
G3 X76.30203045685279 Y75.61928934010152 I-40.715736040609144 J-27.14720812182741
G3 X69.3730964467005 Y81.5 I-34.994923857868024 J-34.20812182741117
G3 X61.992385786802025 Y85.62944162436548 I-24.16243654822335 J-34.515228426395936
G3 X54.77664974619289 Y88.01522842639594 I-16.784263959390863 J-38.64467005076142
G1 Z-2.6748730964467007 F800
G3 X53.93654822335026 Y88.20304568527918 I-9.568527918781726 J-41.03299492385787 F700
G3 X44.90862944162436 Y89.251269035533 I-10.137055837563452 J-47.87563451776649
G3 X44.87055837563452 Y89.25380710659897 I-1.1091370558375635 J-48.923857868020306
G1 Z-3.1748730964467007 F800
G3 X35.84263959390863 Y88.61421319796955 I-1.0710659898477157 J-48.9263959390863 F700
G3 X27.680203045685282 Y86.40862944162437 I6.850253807106599 J-41.57360406091371
G3 X20.121827411167512 Y82.61675126903553 I15.01269035532995 J-39.368020304568525
G3 X12.931472081218274 Y77.05583756345177 I26.218274111675125 J-41.32233502538071
G3 X6.895939086294415 Y70.26395939086294 I33.40609137055837 J-35.76142131979695
G3 X2.5989847715736043 Y62.97969543147208 I33.95939086294416 J-24.939086294416242
G3 X-0.15482233502538073 Y54.98477157360406 I38.256345177664976 J-17.65482233502538
G3 X-1.4086294416243654 Y45.98223350253807 I47.63451776649746 J-11.220812182741117
G3 X-1.4111675126903553 Y45.911167512690355 I1.5862944162436547 J-0.07106598984771574
G3 X0.17512690355329952 Y44.32233502538071 I1.5862944162436547 J0
G0 Z15
M5
M30
